X:1
T:The Handwriting on the Wall
T:Knowles Shaw, 1877 & Ira Sankey
T:The Handwriting on the Wall
T:Public Domain
T:Public Domain
T:Public Domain
C:Knowles Shaw, 1877 & Ira Sankey
Z:Public Domain
%%score ( 1 2 ) ( 3 4 )
L:1/8
M:4/4
K:F
V:1 treble 
V:2 treble 
V:3 bass 
V:4 bass 
V:1
 [FA]>[FB] | [Fc]2 C>C C<C [CF][EG] | [FA]>[EG] [FA][GB] [Ac]2 [Fc][Fc] | %3
w: 1.~At the|feast of Bel- shaz- zar and a|lords, While they drank from gold- en|
w: 2.~See the|brave cap- tive, Dan- iel, as he|throng, And re- buked the haught- y|
w: 3.~See the|faith, zeal and cour- age, that would|right, Which the Spir- it gave to|
w: 4.~So our|deeds are re- cord- ed— there’s a|now: Sin- ner, give your heart to|
 [Fd]>[FB] [FB][Fd] [Fc]<[FA] [FA][EG] | [DF]>[DF] [^CE]>[DF] [EG]2 [FA]>[FB] | %5
w: ves- sels, as the Book of Truth re-|cords, In the night, as they re-|
w: mon- arch for his might- y deeds of|wrong; As he read out the writ-|
w: Dan- iel— ’twas the sec- ret of his|might, In his home in Ju- de-|
w: Je- sus, to His roy- al man- dates|bow; For the day is ap- proach-|
 [Fc]2 C>C C<C [CF][EG] | [FA]>[EG] [FA][GB] [Ac]2 ([Fc][Fc]) | %7
w: veled in the roy- al pal- ace|con- ster- na- tion— ’twas the *|
w: ing— ’twas the doom of one and|now was fin- ished— said the *|
w: a, or a cap- tive in the|stood the writ- ing of his *|
w: ing— it must come to one and|con- demn- a- tion will be *|
 [Fd]>[FB] [FB][Fd] [Fc]/[FA] z/ F[FG] | [FA]>[FA] [FA]>[EG] F2 ||"^Refrain" [FA]>[FB] | %10
w: Hand up- on the wall! * * *|||
w: Hand up- on the wall! ’Tis the hand|God on the wall! ’Tis|hand of|
w: God up- on the wall! * * *|||
w: writ- ten on the wall! * * *|||
 [Fc]2 [Ec]2 [Fc]2 A>G | (CC D>D C2) [CF][CF] | [EG]2 [EG]2 [EG]2 d>c | (FF E>E F2) [FA]>[FB] | %14
w: ||||
w: God on the wall! Shall|the * * * * rec- ord|“Found want- ing!” Or shall|it * * * * be “Found|
w: ||||
w: ||||
 [Fc]<[Fc] [Fd]>[Fc] [Fc]<[FA] z F | [DG]<[DF] [DF]>[B,D] [B,D]/[A,C] z/ [CF]>[DG] | %16
w: ||
w: ing!” While that hand is writ- ing|the wall? * * * * * *|
w: ||
w: ||
 [CA]2 [CF]2 [EG][Ec] A>G | (CC D>D C2) |] %18
w: ||
w: ||
w: ||
w: ||
V:2
 x2 | x2 C>C C<C x2 | x8 | x8 | x8 | x2 C>C C<C x2 | x8 | x6 F x | x4 F2 || x2 | x8 | F6 x2 | x8 | %13
w: |thou- sand of his||||hall, They~were seized with||||||||
w: |stood be- fore the||||all, For~the king- dom||of|the|||be||
w: |dare to do the||||hall, He un- der-||||||||
w: |Hand that’s writ- ing||||all, When~the sin- ners’||||||||
 c6 x2 | x7 F | x8 | x8 | F6 |] %18
w: |||||
w: trust-|on||||
w: |||||
w: |||||
V:3
 F,>[F,G,] | [F,A,]2 [F,A,]>[F,A,] [F,A,]<[F,A,] [A,,C][C,C] | %2
w: ~ ~|~ ~ ~ ~ ~ ~ ~|
 [F,C]>[B,C] [A,C][G,C] [F,C]2 [F,A,][F,A,] | %3
w: ~ ~ ~ ~ ~ ~ ~|
 [B,,B,]>[B,,D] [B,,D][B,,B,] [F,A,]<[F,C] [F,C][C,B,] | %4
w: ~ ~ ~ ~ ~ ~ ~ ~|
 [D,A,]>[D,A,] [A,,A,]>[D,A,] [C,C]2 F,>[F,G,] | [F,A,]2 [F,A,]>[F,A,] [F,A,]<[F,A,] [A,,C][C,C] | %6
w: ~ ~ ~ ~ ~ ~ ~|~ ~ ~ ~ ~ ~ ~|
 [F,C]>[B,C] [A,C][G,C] [F,C]2 ([F,A,][F,A,]) | %7
w: ~ ~ ~ ~ ~ ~ *|
 [B,,B,]>[B,,D] [B,,D][B,,B,] [F,A,]/[F,C] z/ [F,A,][D,=B,] | [C,C]>[C,C] [C,C]>[C,B,] [F,A,]2 || %9
w: ~ ~ ~ ~ ~ ~ ~ ~|~ ~ ~ ~ ~|
 F,>[F,G,] | [F,A,]2 [C,G,]2 [F,A,]2 z2 | [F,A,][F,A,] [F,B,]>[F,B,] [F,A,]2 [F,A,][F,A,] | %12
w: ~ ~|writ- ing on|the wall! ~ ~ ~ ~ ~|
 [C,C]2 [C,G,]2 [C,C]2 z2 | [F,A,][F,A,] [C,G,]>[C,G,] [F,A,]2 F,>[F,G,] | %14
w: writ- ing on|the wall! ~ ~ ~ ~ ~|
 [F,A,]<[F,A,] [F,B,]>[F,A,] [F,A,]<[F,C] z [F,A,] | %15
w: ~ ~ ~ ~ ~ ~ ~|
 [B,,B,]<[B,,B,] [B,,B,]>[B,,F,] [F,,F,]/[F,,F,] z/ [A,,F,]>[B,,F,] | %16
w: ~ ~ ~ ~ ~ ~ ~ ~|
 [C,F,]2 [C,A,]2 [C,G,][C,G,] z2 | [F,A,][F,A,] [B,,B,]>[B,,B,] [F,,A,]2 |] %18
w: writ- ing on the|wall! * * * *|
V:4
 F,3/2 x/ | x8 | x8 | x8 | x6 F,3/2 x/ | x8 | x8 | x8 | x6 || F,3/2 x/ | x8 | x8 | x8 | %13
w: ~||||~|||||~||||
 x6 F,3/2 x/ | x8 | x8 | x8 | x6 |] %18
w: ~|||||

